X: 1
T: High Noon Killer, The
M: 4/4
L: 1/8
R: reel
K: Edor
E2EF GABd |cccB ABcd |egfd eA (3Bcd |
egfd edcA |BGEF GABd |cccB ABcd |
[1egfd edcA |(3Bcd ed cAGD :|2egfd eA (3Bcd |egfd edef ||
ge ~e2be ~e2|gefd efed |~c2cB ABcd |egfd edef |
ge ~e2be ~e2|bege fded |~c2cB ABcd |egfd e2ef |
ge ~e2be ~e2|ge ~e2fded |~c2cB ABcd |egfd edef |
ge ~e2be ~e2|bgaf gfed |~c2cB ABcd |egfd edcA |
|:EGBd cAEG |BdcA (3EFG Bd |cedf egfa |gefd edcA|
EGBd cAEG |BdcA (3EFG Bd |cedf egfa |gefd (3eee ez:|
